X:113 
T:Limerick Hunt*, The 
F:file ID: cre.5/113lim_h
B:CRE5.020 (gan ainm)
N:Probably a composition of "Squire" Jackson but no
attribution in CRE.
M:6/8
Q:160
R:jig
K:D
(3A/B/c/|d2B AFA|BdB AFA|d3 e3|f3 ecA|
d2B AFA|BdB AFA|d3 e3|fdc d2:|
e|fdf afa|"10"bd'b afe|fdf afd|efe ecA|
fdf afa|"14"bd'b afe|def ede|fdd d2e|
fdf afa|"18"bd'b afe|def ede|fef ecA|
d2B AFA|BdB AFA|d3 e3|fdc d3|]
%%

%%%

